X: 3
T: L'Air Mignonne
Z: Damien Rogeau
S: https://thesession.org/tunes/14109#setting30725
R: barndance
M: 4/4
L: 1/8
K: Amaj
EAB | c>cce cBAB | c>cce cBAB | F3A E3 c | BAGA BEAB |
c>cce cBAB | c>cce cBAB | F3A E3 c| BAGB ABce |
f>ffa fece| f>ffa fecA | F>FF A E3c | BAGA BEce |
f>ffa fece| f>ffa fecA | F>FF A E3c |BAGB A|
